symbols/web/check_circle/materialsymbolsoutlined/check_circle_wght700_24px.svg

<svg xmlns="http://www.w3.org/2000/svg" height="24" width="24"><path d="m10.525 17.1 7.425-7.425-2.075-2.1-5.35 5.35-2.55-2.55-2.075 2.1ZM12 22.85q-2.275 0-4.25-.85t-3.438-2.312Q2.85 18.225 2 16.25q-.85-1.975-.85-4.25T2 7.75q.85-1.975 2.312-3.438Q5.775 2.85 7.75 2q1.975-.85 4.25-.85t4.25.85q1.975.85 3.438 2.312Q21.15 5.775 22 7.75q.85 1.975.85 4.25T22 16.25q-.85 1.975-2.312 3.438Q18.225 21.15 16.25 22q-1.975.85-4.25.85Zm0-3.15q3.25 0 5.475-2.225Q19.7 15.25 19.7 12q0-3.25-2.225-5.475Q15.25 4.3 12 4.3q-3.25 0-5.475 2.225Q4.3 8.75 4.3 12q0 3.25 2.225 5.475Q8.75 19.7 12 19.7Zm0-7.7Z"/></svg>

<svg xmlns="http://www.w3.org/2000/svg" height="24" width="24"><path d="M10.525 17.1 17.95 9.675 15.875 7.575 10.525 12.925 7.975 10.375 5.9 12.475ZM12 22.85Q9.725 22.85 7.75 22Q5.775 21.15 4.312 19.688Q2.85 18.225 2 16.25Q1.15 14.275 1.15 12Q1.15 9.725 2 7.75Q2.85 5.775 4.312 4.312Q5.775 2.85 7.75 2Q9.725 1.15 12 1.15Q14.275 1.15 16.25 2Q18.225 2.85 19.688 4.312Q21.15 5.775 22 7.75Q22.85 9.725 22.85 12Q22.85 14.275 22 16.25Q21.15 18.225 19.688 19.688Q18.225 21.15 16.25 22Q14.275 22.85 12 22.85ZM12 12Q12 12 12 12Q12 12 12 12Q12 12 12 12Q12 12 12 12Q12 12 12 12Q12 12 12 12Q12 12 12 12Q12 12 12 12ZM12 19.7Q15.2 19.7 17.45 17.462Q19.7 15.225 19.7 12Q19.7 8.775 17.45 6.537Q15.2 4.3 12 4.3Q8.8 4.3 6.55 6.537Q4.3 8.775 4.3 12Q4.3 15.225 6.55 17.462Q8.8 19.7 12 19.7Z"/></svg>
